source/img/call-order-desc.svg

<svg width="14" height="14" viewBox="0 0 14 14" fill="none" xmlns="http://www.w3.org/2000/svg">
<path d="M13.6861 11.0733L11.5241 8.9061C11.0934 8.47621 10.3803 8.48927 9.93461 8.9361L8.84534 10.0276C8.77653 9.98957 8.70529 9.94987 8.6304 9.90774C7.94254 9.52574 7.00109 9.00217 6.0104 8.00851C5.01678 7.01276 4.49391 6.06772 4.11161 5.37786C4.07127 5.30478 4.03262 5.23431 3.99445 5.16739L4.7255 4.43577L5.08492 4.07509C5.53125 3.62763 5.54356 2.91305 5.11392 2.48192L2.95184 0.314451C2.52219 -0.116083 1.80871 -0.103021 1.36238 0.344444L0.753032 0.95868L0.769684 0.975248C0.565361 1.23655 0.394623 1.53793 0.267564 1.86292C0.150441 2.17228 0.0775199 2.46748 0.0441767 2.76329C-0.241312 5.13542 0.840232 7.30337 3.7754 10.2452C7.8327 14.3114 11.1023 14.0043 11.2434 13.9893C11.5506 13.9525 11.845 13.8789 12.1442 13.7624C12.4657 13.6366 12.7662 13.4657 13.0267 13.2613L13.04 13.2732L13.6573 12.6673C14.1028 12.22 14.1156 11.5051 13.6861 11.0733Z" fill="url(#paint0_linear)"/>
<defs>
<linearGradient id="paint0_linear" x1="14" y1="14" x2="2.08616e-07" y2="14" gradientUnits="userSpaceOnUse">
<stop stop-color="#FF6E2F"/>
<stop offset="1" stop-color="#F84343"/>
</linearGradient>
</defs>
</svg>

<svg width="14" height="14" fill="none" xmlns="http://www.w3.org/2000/svg"><path d="M13.686 11.073l-2.162-2.167c-.43-.43-1.144-.417-1.59.03l-1.089 1.092-.215-.12c-.687-.382-1.629-.906-2.62-1.9-.993-.995-1.516-1.94-1.898-2.63l-.118-.21.732-.732.359-.36c.446-.448.459-1.163.029-1.594L2.952.314c-.43-.43-1.143-.417-1.59.03L.753.96.77.975a3.534 3.534 0 00-.502.888c-.118.31-.19.604-.224.9-.285 2.372.796 4.54 3.731 7.482 4.058 4.066 7.327 3.76 7.468 3.744a3.645 3.645 0 001.784-.728l.013.012.617-.606c.446-.447.459-1.162.03-1.594z" fill="url(#paint0_linear)"/><defs><linearGradient id="paint0_linear" x1="14" y1="14" x2="0" y2="14" gradientUnits="userSpaceOnUse"><stop stop-color="#FF6E2F"/><stop offset="1" stop-color="#F84343"/></linearGradient></defs></svg>
